X: 1842
T: With Biddy By My Side
M:C
L:1/8
B:O'Neill's 1842
Z:"collected by Kennedy"
Z:"Transcribed by Bob Safranek, rjs@gsp.org"
K:Em
EFGA BcAc | B>A ((3GAB)    AGED     |EFGA BcAc |1 Bee^d e2 z2:|2 Bee^d e2 (ef)||
gefd edB^c| d2    ed   (B<d)   d2   |gefd edBA | ((3B^c^d) ef e2 (ef) |
gefd edB^c| d2    ed   (B<d) d(g/a/)|bgaf gefd |  Bee^d       e2  z2  |]


